!!!ONB: MCCC : IFS0367_01 : Extracted Monophonic Melody
!!!COM: Schubert, Franz
!!!OPR: 4 Impromptus
!!!OMV: 1
!!!SCT: D.935 ; Op.142
!!!ODT: 1827///
**kern
*staff1
*clefG2
*k[b-e-a-d-]
*A-:
*M4/4
32c
32f
32a-
=2
4.cc[
16cc]
16b-
8.a-
16b-
8.g
16a-
=3
8.f
16g-
8.e-
16f
8.d-
16e-
8.c
16d-
=4
1r
=5
4r
4dd-
8r
32r
32cc
32dd-
32ee-
8.dd-
16cc
=6
4cc
4ff[
12ff]
12g
12b-
12dd-
12b-
12g
=7
2f
8e
16gg-
16gg
16aa-
16aa
16bb-
16ccc-
=8
32cc
32ff
8.aa-
8.ccc
16bb-
40aa-
40bb-
40aa-
40gg
40aa-[
16aa-]
16bb-
40gg
40aa-
40gg
40ff
40gg[
16gg]
16aa-
=9
32ff
64gg
64ff[
64ff]
32.ee
16ff
16gg-
32ee-
64ff
64ee-[
64ee-]
32.dd
16ee-
16ff
40dd-
40ee-
40dd-
40cc
40dd-[
16dd-]
16ee-
48cc
32dd-
96cc[
96cc]
32b
48cc[
16cc]
16dd-
=10
16b-
16dd-
16b-
16dd-
16a-
16dd-
16a-
16dd-
16g-
16dd-
16g-
16dd-
16f
16dd-
16f
16dd-
=11
4e
4ddd-
8r
32r
32cc
32dd-
32ee-
8.dd-
16cc
=12
12cc
12aa-
12gg
12ff
12cc
12a-
12g
12ee-
12cc
12dd-
12b-
12g
=13
12f
12c
12f
12a-
12f
12dd-
4cc
4ee
=14
8ff
16a-
16cc
16a-
16cc
16a-
16cc
16g
16cc-
16a-
16cc
16a-
16cc
16a-
16cc
=15
16a
16ee-
16b-
16dd-
16b-
16dd-
16b-
16dd-
16dd-
16ff
16b-
16dd-
16a-
16dd-
16g
16dd-
=16
16a-
16dd-
16a-
16cc
16a-
16cc
16a-
16cc
16a-
16cc
16g-
16b-
16g-
16b-
16g-
16b-
=17
16g-
16b-
16f
16a-
16f
16a-
16f
16a-
16f
16a-
16e
16g
16e
16g
16e
16g
=18
8f
16a-
16cc
16a-
16cc
16a-
16cc
16g
16cc-
16a-
16cc
16a-
16cc
16a-
16cc
=19
16a
16ee-
16b-
16dd-
16b-
16dd-
16b-
16dd-
16dd-
16ff
16b-
16dd-
16a-
16dd-
16g
16dd-
=20
16a-
16dd-
16a-
16cc
16a-
16cc
16a-
16cc
16cc
16ee-
16f
16b-
16dd-
16ff
16ee-
16dd-
=21
16b-
16dd-
16e-
16a-
16cc
16ee-
16dd-
16cc
16a
16cc
16e-
16g
16b-
16dd-
16cc
16b-
=22
8a-
16cc
16ee-
16cc
16ee-
16cc
16ee-
16cc-
16dd
16cc
16ee-
16cc
16ee-
16cc
16ee-
=23
16cc
16ee-
16dd-
16ee
16gg
16bb-
16cc
16ee-
16dd-
16ee
16gg
16bb-
16aa-
16gg
16ff
16gg
=24
8aa-
16cc
16ee-
16cc
16ee-
16cc
16ee-
16cc-
16dd
16cc
16ee-
16cc
16ee-
16cc
16ee-
=25
16dd-
16ff
16ee-
16gg-
16aa
16ccc
16dd-
16ff
16ee-
16gg-
16aa
16ccc
16bb-
16aa-
16gg
16aa-
=26
8bb-
16dd-
16ff
16dd-
16ff
16dd-
16ff
16cc
16ee
16dd-
16ff
16dd-
16ff
16dd-
16ff
=27
16bb-
16dd-
16ee
16dd-
16ee-
16dd-
16ee
16dd-
16aa-
16cc
16ff
16cc
16ee-
16cc
16aa-
16cc
=28
16ddd-
16dd-
16ee
16dd-
16ee-
16dd-
16ee
16dd-
16ccc
16cc
16ff
16cc
16ee-
16cc
16aa-
16cc
=29
16ccc
16eee-
16ff
16bb-
16ddd-
16fff
16eee-
16ddd-
16bb-
16ddd-
16ee-
16aa-
16ccc
16eee-
16ddd-
16ccc
=30
16aa
16ccc
16ee-
16gg
16bb-
16ddd-
16ccc
16bb-
16aa-
16gg
16ff
16ee
16ee-
16dd-
16cc
16b-
=31
8a-
8A-
8A-
8A-
8G
8A-
8A-
8A-
=32
8.A
32B-
32c
8.B-
32c
32d-
8e-
16g
16b-
16ee-
16gg
16bb-
16eee-
=33
8aa-
8A-
8A-
8A-
8G
8A-
8A-
8A-
=34
8.A
32B-
32c
8.B-
32c
32d-
8e-
16e
16g
16cc
16ee
16gg
16ccc
=35
8ff
8f
8f
8f
8e
8f
8f
8f
=36
8.f
32g-
32a-
8.g-
32a-
32a
8a-
16cc
16ee-
16aa-
16ccc
16eee-
16aaa-
=37
8ddd-
8f
8f
8f
8e
8f
8f
8f
=38
8cc-
8b-
8b-
8b-
8g
16g
16b-
16ee-
16gg
16bb-
16eee-
=39
8dd-
8cc
8cc
8cc
8a
16a
16cc
16ff
16aa
16ccc
16fff
=40
8ggg-
8fff
8fff
8eee
8eee
8fff
8fff
8ccc
=41
8bb-
8aa
8aa
8gg
8gg
8ff
8ff
8ff
=42
8gg-
8ff
8ff
8ee
8ee
8ff
8ff
8cc
=43
8b-
8a
8a
8g
8g
8f
8f
8f
=44
8f
8f
8f
8f
8f
8f
8f
8f
=45
8e
8e-
8e-
8e-
8e-
8e-
8e-
8e-
=46
8e-
8cc
8cc
8cc
8b
8cc
8cc
8cc
=47
8ee-
8dd-
8dd-
8dd-
8dd-
8cc
8b-
8a-
=48
8a-
8g
8g
8g
8g
8g
8a-
8b-
=49
8e-
8a-
8a-
8a-
8a-
8a-
16a-
8cc
16a-
=50
8a-
8g
8g
8g
8g
8g
8a-
8b-
=51
8e-
8a-
8a-
8a-
8a-
8ee-
8aa-
8bb-
=52
8r
8ccc
8ccc
8ccc
8bb
8ccc
8ccc
8ccc
=53
8eee-
8ddd-
8ddd-
8ddd-
8ddd-
8ccc
8bb-
8aa-
=54
8aa-
8gg
8gg
8gg
8gg
8gg
8aa-
8bb-
=55
8ee-
8aa-
8aa-
8aa-
8aa-
8aa-
16aa-
8ccc
16aa-
=56
8aa-
8gg
8gg
8gg
8gg
8gg
8aa-
8bb-
=57
8ee-
8aa-
8aa-
8aa-
8aa-
16ee-
16eee-
16aa-
16eee-
16bb-
16eee-
=58
16ee-
16eee-
16ccc
16ee-
16ee-
16eee-
16ccc
16ee-
16ee-
16eee-
16ccc
16ee-
16ee-
16eee-
16aa-
16aaa-
=59
16aa-
16aaa-
16fff
16aa-
16aa-
16aaa-
16fff
16aa-
16aa-
16aaa-
16aa
16aaa
16bb-
16bbb-
16cccc
16dddd-
=60
16eee-
16eeee-
16dddd-
16eee-
16eee-
16eeee-
16dddd-
16eee-
16eee-
16eeee-
16dddd-
16eee-
16cccc
16eeee-
16bbb-
16eeee-
=61
16eee-
16eeee-
16cccc
16eee-
16eee-
16eeee-
16cccc
16eee-
16eee-
16eeee-
16cccc
16eee-
16aaa-
16aaaa-
16eee-
16eeee-
=62
16eee-
16eeee-
16dddd-
16eee-
16eee-
16eeee-
16dddd-
16eee-
16eee-
16eeee-
16dddd-
16eee-
16cccc
16eeee-
16bbb-
16eeee-
=63
16eee-
16eeee-
16cccc
16eee-
16eee-
16eeee-
16cccc
16eee-
16eee-
16eeee-
16cccc
16eee-
16aaa-
16aaaa-
16eee-
16eeee-
=64
16eee-
16eeee-
16dddd-
16eee-
16eee-
16eeee-
16dddd-
16eee-
16eee-
16eeee-
16dddd-
16eee-
16cccc
16eeee-
16bbb-
16eeee-
=65
2bbb-[
8bbb-]
8cccc
8dddd-
8dddd
=66
2.eeee-
4ggg
=67
16cccc
16eeee-
16aaa-
16cccc
16eee-
16aaa-
16ccc
16eee-
16aa-
16ccc
16ee-
16aa-
16cc
16ee-
16a-
16cc
=68
16e-
16a-
16c
16e-
4r
2r
=69
1r
=70
2r
4r
8cc-
8dd-
=71
4ee-
4r
2r
=72
2r
4r
8dd-
8ee
=73
4ee-
4r
2r
=74
2r
4r
8cc-
8dd-
=75
4ee-
4r
8r
16e-
16g-
16e
16g-
16e-
16g-
=76
4d-
4r
4r
8ee
8aa-
=77
4gg-
4r
4r
16e-
16g-
16e
16g-
=78
16e-
16g-
16G-
16c-
16e-
16g-
16G-
16c-
16e-
16g-
8ee-
8dd-
8cc-
=79
4a-
4r
2r
=80
2r
8r
8ee-
8ee
8ff
=81
1gg-
=82
4ee-
4r
2r
=83
16d-
16g-
16G-
16c-
16d-
16g-
16G-
16c-
16d-
16g-
16G-
16B-
16d-
16g-
16G-
16B-
=84
1r
=85
2r
4r
8cc-
8dd-
=86
4ee-
4r
2r
=87
2r
4r
8dd-
8ee
=88
4ee-
4r
2r
=89
2r
4r
8cc-
8dd-
=90
4ee-
4r
8r
16e-
16g-
16e
16g-
16e-
16g-
=91
4d-
4r
4r
8ee
8aa-
=92
4gg-
4r
4r
16e-
16g-
16e
16g-
=93
16e-
16g-
16G-
16c-
16e-
16g-
16G-
16c-
16e-
16g-
8ee-
8dd-
8cc-
=94
4a-
4r
2r
=95
2r
8r
8ee-
8ee
8ff
=96
1gg-
=97
4ee-
4r
2r
=98
1r
=99
2r
8r
8ee-
8ee-
8ee
=100
4ee-
4b-
2r
=101
2r
8r
8ee-
8ee-
8ee
=102
4ee-
4b-
2r
=103
2r
8r
8ee-
8ee-
8ee-
=104
4ee
4r
4r
8.cc
16dd
=105
4ee
4r
4r
8.cc
16dd
=106
4ee
4r
2r
=107
4r
4ff[
8ff]
8ff
8gg
8aa-
=108
4gg
4r
8r
8ff
8ee-
8dd
=109
4cc
4r
4r
4cc
=110
4dd
4r
2r
=111
4ee-
4r
2r
=112
1r
=113
2r
4r
8r
8b-
=114
4cc
4r
2r
=115
2r
4r
8dd-
8ff
=116
4ee-
4r
2r
=117
2r
4r
8cc
8dd-
=118
4ee-
4r
2r
=119
2r
8r
8aa-
8gg
8ff
=120
4ee-
4r
2r
=121
2r
4r
8cc
8dd-
=122
4ee-
4r
2r
=123
2r
8r
8aa-
8gg
8ff
=124
4ee-
4r
2r
=125
1r
=126
1r
=127
1r
=128
1r
=129
2r
16c
16e
16B-
16c
16e
16b-
16c
16e
=130
16b-
16cc
16c
16e
16b-
16cc
16c
16e
16b-
16cc
16c
16e
16b-
16cc
16c
16e
=131
32cc
32ff
8.aa-
8.ccc
16bb-
8.a-
16b-
8.g
16a-
=132
8.f
16g-
8.e-
16f
8.d-
16e-
8.c
16d-
=133
1r
=134
4r
4dd-
8r
32r
32cc
32dd-
32ee-
8.dd-
16cc
=135
4cc
4ff[
12ff]
12g
12b-
12dd-
12b-
12g
=136
2f
8e
16gg-
16gg
16aa-
16aa
16bb-
16ccc-
=137
32cc
32ff
8.aa-
8.ccc
16bb-
8.aa-
16aaa-
8.gg
16ggg
=138
8.ff
16fff
8.ee-
16eee-
8.dd-
16ddd-
8.cc
16ccc
=139
16b-
16bb-
16b-
16bb-
16a-
16aa-
16a-
16aa-
16g-
16gg-
16g-
16gg-
16f
16ff
16f
16ff
=140
4ee
4ddd-
8r
32r
32cc
32dd-
32ee-
8.dd-
16cc
=141
12cc
12aa-
12gg
12ff
12cc
12a-
12g
12ee-
12cc
12dd-
12b-
12g
=142
12f
12c
12f
12a-
12f
12dd-
4cc
4ee
=143
8ff
16a-
16cc
16a-
16cc
16a-
16cc
16g
16cc-
16a-
16cc
16a-
16cc
16a-
16cc
=144
16a
16ee-
16b-
16dd-
16b-
16dd-
16b-
16dd-
16dd-
16ff
16b-
16dd-
16a-
16dd-
16g
16dd-
=145
16a-
16dd-
16a-
16cc
16a-
16cc
16a-
16cc
16a-
16cc
16g-
16b-
16g-
16b-
16g-
16b-
=146
16g-
16b-
16f
16a-
16f
16a-
16f
16a-
16f
16a-
16e
16g
16e
16g
16e
16g
=147
8f
16a
16cc
16a
16cc
16a
16cc
16a-
16cc-
16a
16cc
16a
16cc
16a
16cc
=148
16a
16ee-
16b-
16dd
16b-
16dd
16b-
16dd
16dd
16ff
16b-
16dd
16a
16dd
16a-
16dd
=149
16a
16dd
16a
16cc
16a
16cc
16a
16cc
16a
16cc
16d
16g
16b-
16dd
16cc
16b-
=150
16g
16b-
16c
16f
16a
16cc
16b-
16a
16g-
16a
16c
16e
16g
16b-
16a
16g
=151
8f
16a
16cc
16a
16cc
16a
16cc
16a-
16cc-
16a
16cc
16a
16cc
16a
16cc
=152
16a
16cc
16b-
16dd-
16ee
16gg
16a
16cc
16b-
16dd-
16ee
16gg
16ff
16ee
16dd
16ee
=153
8ff
16a
16cc
16a
16cc
16a
16cc
16a-
16cc-
16a
16cc
16a
16cc
16a
16cc
=154
16b-
16dd
16cc
16ee-
16gg-
16aa
16b-
16dd
16cc
16ee-
16gg-
16aa
16gg
16ff
16ee
16ff
=155
8gg
16b-
16dd
16b-
16dd
16b-
16dd
16a
16dd-
16b-
16dd
16b-
16dd
16b-
16dd
=156
16gg
16b-
16dd-
16b-
16cc
16b-
16dd-
16b-
16ff
16a
16dd
16a
16cc
16a
16ff
16a
=157
16bb-
16b-
16dd-
16b-
16cc
16b-
16dd-
16b-
16aa
16a
16dd
16a
16cc
16a
16ff
16a
=158
16aa
16ccc
16dd
16gg
16bb-
16ddd
16ccc
16bb-
16gg
16bb-
16cc
16ff
16aa
16ccc
16bb-
16aa
=159
16gg-
16aa
16cc
16ee
16gg
16bb-
16aa
16gg
16ff
16ee
16dd
16dd-
16cc
16b-
16a
16g
=160
4f
4r
2r
=161
2r
8r
16e
16g
16cc
16ee
16gg
16ccc
=162
4ff
4r
2r
=163
2r
8r
16d-
16e
16a
16dd-
16ee
16aa
=164
4dd
4r
2r
=165
8.d
32e-
32f
8.e-
32f
32g-
8f
16a
16cc
16ff
16aa
16ccc
16fff
=166
4bb-
4r
2r
=167
8a-
8g
8g
8g
8e
16e
16g
16cc
16ee
16gg
16ccc
=168
8b-
8a
8a
8a
8g-
16g-
16a
16dd
16gg-
16aa
16ddd
=169
8eee-
8ddd
8ddd
8ddd-
8ddd-
8ddd
8ddd
8aa
=170
8gg
8gg-
8gg-
8ee
8ee
8dd
8dd
8dd
=171
8ee-
8dd
8dd
8dd-
8dd-
8dd
8dd
8a
=172
1r
=173
1r
=174
1r
=175
8r
8a
8a
8a
8g#
8a
8a
8a
=176
8cc
8b-
8b-
8b-
8b-
8a
8g
8f
=177
8f
8e
8e
8e
8e
8e
8f
8g
=178
8c
8f
8f
8f
8f
8f
16f
8a
16f
=179
8f
8e
8e
8e
8e
8e
8f
8g
=180
8c
8f
8f
8f
8f
8cc
8ff
8gg
=181
8r
8aa
8aa
8aa
8gg#
8aa
8aa
8aa
=182
8ccc
8bb-
8bb-
8bb-
8bb-
8aa
8gg
8ff
=183
8ff
8ee
8ee
8ee
8ee
8ee
8ff
8gg
=184
8cc
8ff
8ff
8ff
8ff
8ff
16ff
8aa
16ff
=185
8ff
8ee
8ee
8ee
8ee
8ee
8ff
8gg
=186
8cc
8ff
8ff
8ff
8ff
16cc
16ccc
16ff
16ccc
16gg
16ccc
=187
16cc
16ccc
16aa
16cc
16cc
16ccc
16aa
16cc
16cc
16ccc
16aa
16cc
16cc
16ccc
16ff
16fff
=188
16ff
16fff
16ddd
16ff
16ff
16fff
16ddd
16ff
16ff
16fff
16gg-
16ggg-
16gg
16ggg
16aaa
16bbb-
=189
16ccc
16cccc
16bbb-
16ccc
16ccc
16cccc
16bbb-
16ccc
16ccc
16cccc
16bbb-
16ccc
16aaa
16cccc
16ggg
16cccc
=190
16ccc
16cccc
16aaa
16ccc
16ccc
16cccc
16aaa
16ccc
16ccc
16cccc
16aaa
16ccc
16fff
16ffff
16ccc
16cccc
=191
16ccc
16cccc
16bbb-
16ccc
16ccc
16cccc
16bbb-
16ccc
16ccc
16cccc
16bbb-
16ccc
16aaa
16cccc
16ggg
16cccc
=192
16ccc
16cccc
16aaa
16ccc
16ccc
16cccc
16aaa
16ccc
16ccc
16cccc
16aaa
16ccc
16fff
16ffff
16ccc
16cccc
=193
16ccc
16cccc
16bbb-
16ccc
16ccc
16cccc
16bbb-
16ccc
16ccc
16cccc
16bbb-
16ccc
16aaa
16cccc
16ggg
16cccc
=194
2ggg[
8ggg]
8aaa
8bbb-
8cccc-
=195
2.cccc
4eee
=196
16fff
16aaa
16ccc
16fff
16aa
16ccc
16ff
16aa
16cc
16ff
16a
16cc
16f
16a
16c
16f
=197
16a
16cc
16c
16f
16a
16cc
16c
16f
16a
16cc
16c
16f
16a
16cc
16c
16f
=198
2r
4r
8aa-
8bb-
=199
4ccc
4r
8r
16a-
16cc
16b-
16cc
16a-
16cc
=200
4g
4r
4r
8bb-
8ddd-
=201
4ccc
4r
4r
8r
16b-
16cc
=202
4a-
4r
4r
8aa-
8bb-
=203
4ccc
4r
8r
16cc
16ee-
16dd-
16ee-
16cc
16ee-
=204
4b-
4r
4r
8ddd-
8fff
=205
4eee-
4r
4r
16cc
16ee-
16dd-
16ee-
=206
16cc
16ee-
16e-
16a-
16cc
16ee-
16e-
16a-
16cc
16ee-
8ccc
8bb-
8aa-
=207
4ff
4r
2r
=208
2r
8r
8ccc
8ddd-
8ddd
=209
1eee-
=210
4ccc
4r
2r
=211
1r
=212
2r
8r
8ccc
8ccc
8ddd-
=213
4ccc
4gg
2r
=214
2r
8r
8ccc
8ccc
8ddd-
=215
4ccc
4gg
2r
=216
2r
8r
8ccc
8ccc
8ccc
=217
4ddd-
4r
4r
8.aa
16ccc-
=218
4ddd-
4r
4r
8.aa
16ccc-
=219
4ddd-
4r
2r
=220
4r
4ddd[
8ddd]
8ddd
8eee
8fff
=221
4eee
4r
8r
8ddd
8ccc
8bb
=222
4aa
4r
4r
4aa
=223
4bb
4r
2r
=224
4ccc
4r
2r
=225
1r
=226
2r
4r
8ff
8gg
=227
4aa
4r
8r
16a
16cc
16b-
16cc
16a
16cc
=228
4g
4r
4r
8bb-
8ddd
=229
4ccc
4r
4r
8r
16b-
16cc
=230
4a
4r
4r
8aa
8bb-
=231
4ccc
4r
2r
=232
2r
8r
8fff
8eee
8ddd
=233
4ccc
4r
8r
16a
16cc
16b-
16cc
16g
16cc
=234
4a
4r
4r
8aa
8bb-
=235
4ccc
4r
2r
=236
2r
8r
8fff
8eee
8ddd
=237
4ccc
4r
8r
16a
16cc
16b-
16cc
16g
16cc
=238
16a
16cc
16c
16f
16a
16cc
16c
16f
16a
16cc
16a
16cc
16b-
16cc
16g
16cc
=239
16a
16cc
16c
16f
16a
16cc
16c
16f
16a
16cc
16a
16cc
16b-
16cc
16g
16cc
=240
16f
16a
16A
16c
16f
16a
16A
16c
16f
16a
16A
16c
16f
16a
16A
16c
=241
16f
16a-
16A-
16c
16f
16a-
16A-
16c
16f
16a-
16c
16f
16a-
16cc
16c
16f
=242
32cc
32ff
8.aa-
8.ccc
16bb-
8.a-
16b-
8.g
16a-
=243
32f
64g
64f[
64f]
32.e
16f
16g-
32e-
64f
64e-[
64e-]
32.d
16e-
16f
40d-
40e-
40d-
40c
40d-[
16d-]
16e-
48c
32d-
96c[
96c]
32B
48c[
16c]
16d-
=244
1r
=245
4r
4dd-
8r
32r
32cc
32dd-
32ee-
8.dd-
16cc
=246
12cc
12aa-
12gg
12ff
12cc
12a-
12g
12ee-
12cc
12dd-
12b-
12g
=247
2f
2e
=248
12r
12A-
12B-
12c
12B-
12A-
2e
=249
4f
4r
4f
4r
=250
2f
2r
==
*-
